X: 108
T: Birdie
B: canberra pickers and fiddlers
B: old time tunes update
B: tunes
M:4/4
L:1/8
R: Reel
Q: 1/4=100
K:C
V:1 
|: [G2c2] | "C"J([e4e4] [ee])[ee][eg][ee] | [e2a2][eg](e dc A2) | "F"([F2A]F2)C2A2 | d6 c2 |
"G"B2g4a2 | b3 (a a)g g2 | "C"J([e4e4][ee])[eg][ee]d | c4[G2c2][c2e] |
J([e4e4] [ee])[ee][eg][ee] | [e2a2] [eg](e d-c A2) | "F"([F2A]F2)C2A2  | d4- ddcA |
"G"{A}B2 g4^fg | a2g2 fed2 | "C"[E4c4]-[Ec][EB}[Ec][Ed] | [E6c6] ||
|: GF | "C"E2CE cdcE | D [c2E]D cAGF | E[C2E]E [Ec][Ed][Ec]E | "G"D[D2B][Dc] [D3B3]D- |
GFG(A Bc)BA | G[G2B][GA] BcBA | GFG(A BA)Bc | "C"d[E2c][Ec] [E2c2]:|
% abcbook-tune_id 67a7d9ece5b1aa914a1e76a3
% abcbook-tune_composer_id 
% abcbook-link-0 https://www.youtube.com/watch?v=-Q_PU0E35qA
% abcbook-link-title-0 Birdie - old-time fiddle tune - Honey Holler band
% abcbook-link-start-at-0 37
% abcbook-boost 0
% abcbook-difficulty 0
% abcbook-tags old time tunes
% abcbook-tablature 
% abcbook-transpose 
% abcbook-tuning GDAE
% abcbook-lastupdated 1739100078452
% abcbook-src-url 
% abcbook-soundfonts 
% abcbook-repeats 1


